X:1
T:Max Hobart's Jig
C:Len Bittenson
K:Dm
M:6/8
"Dm"DA,D DA,D|DA,F "A"E2E|"Dm"DA,D DFG|AGF "A"E2^C|
"Dm"DA,D DA,D|DA,F "A"E2E|"Dm"DA,D DFG|"A"AE^C[1"Dm"D3:|[2"Dm"DGA|]
|:"Gm"BGB BGB|"F"AFA AFA|"C"GEG GEG|"Dm"FA,D FGA|
"Bb"BGB BGB|"F"AFA AFA|"A"GE^C A,EG|FE^C [1"Dm"DGA:|[2"Dm"D3|]

#include "LeftHeader.h"
% %footer 03/27/19 For use only by Roaring Jelly members
% %text Set 138 NEFFA 2019
% %scale .725
$SmallLMargin
$SmallRMargin
